!!!OTL: Renmin gongshe jiushihao
!!!ARE: Asia, China,ÿNingxia Yenchuan
!! I, 162
!!!SCT: C1830
!!!YEM: Copyright 1995, estate of Helmut Schaffrath.
**kern
*ICvox
*Ivox
*M2/4
*k[b-e-]
*B-:
{8.ccc
16ddd
8ccc
8bb-
=1
4.gg
8fff
=2
8.ccc
16ddd
8ccc
8bb-
=3
2gg}
=4
{8ccc
8ccc
8ccc
8ccc
=5
8.bb-
16ccc
8bb-
8gg
=6
8ff
8ff
8gg
8dd
=7
2cc}
=8
{8ff
8ff
8een
8ff
=9
8gg
8dd
4cc
=10
8ff
8een
8ff
8gg
=11
2cc}
=12
{8gg
4ccc
8ccc
=13
8ccc
8fff
8bb-
8gg
=14
8ff
8gg
8een
8cc
=15
4bb-
8bb-
8gg
=16
8ff
8ff
8gg
8dd
=17
2cc}
==
!!!AGN: Xiaodiao
!! Han
!!!ONB: ESAC (Essen Associative Code) Database: SENGANSU
!!!AMT: simple duple
!!!AIN: vox
!!!EED: Helmut Schaffrath
!!!EEV: 1.0
*-
